src/groovy.svg

<?xml version="1.0" encoding="UTF-8" standalone="no"?>
<!-- Created with Inkscape (http://www.inkscape.org/) -->

<svg
   xmlns:dc="http://purl.org/dc/elements/1.1/"
   xmlns:cc="http://creativecommons.org/ns#"
   xmlns:rdf="http://www.w3.org/1999/02/22-rdf-syntax-ns#"
   xmlns:svg="http://www.w3.org/2000/svg"
   xmlns="http://www.w3.org/2000/svg"
   xmlns:sodipodi="http://sodipodi.sourceforge.net/DTD/sodipodi-0.dtd"
   xmlns:inkscape="http://www.inkscape.org/namespaces/inkscape"
   width="16"
   height="16"
   id="svg3944"
   version="1.1"
   inkscape:version="0.91 r13725"
   sodipodi:docname="groovy1.svg">
  <defs
     id="defs3946" />
  <sodipodi:namedview
     id="base"
     pagecolor="#ffffff"
     bordercolor="#666666"
     borderopacity="1.0"
     inkscape:pageopacity="0.0"
     inkscape:pageshadow="2"
     inkscape:zoom="33.625"
     inkscape:cx="8"
     inkscape:cy="8"
     inkscape:document-units="px"
     inkscape:current-layer="layer1"
     showgrid="false"
     inkscape:window-width="1366"
     inkscape:window-height="705"
     inkscape:window-x="-8"
     inkscape:window-y="-8"
     inkscape:window-maximized="1"
     fit-margin-top="0"
     fit-margin-left="0"
     fit-margin-right="0"
     fit-margin-bottom="0" />
  <metadata
     id="metadata3949">
    <rdf:RDF>
      <cc:Work
         rdf:about="">
        <dc:format>image/svg+xml</dc:format>
        <dc:type
           rdf:resource="http://purl.org/dc/dcmitype/StillImage" />
        <dc:title></dc:title>
      </cc:Work>
    </rdf:RDF>
  </metadata>
  <g
     inkscape:label="Ebene 1"
     inkscape:groupmode="layer"
     id="layer1"
     transform="translate(-35.396599,-318.1568)">
    <path
       style="fill:#000000;fill-opacity:1;stroke:none;stroke-width:0.1"
       d="M 7.9765625 4.046875 C 7.9462689 4.0529442 7.9229706 4.0861356 7.8925781 4.1347656 C 7.8242281 4.2441356 7.6305606 4.5531025 7.4628906 4.8203125 C 7.2952206 5.0875325 7.1582031 5.3221969 7.1582031 5.3417969 C 7.1582031 5.3994169 6.4646319 6.5094981 6.3261719 6.6738281 C 6.2338819 6.7833281 6.1333614 6.8101844 5.9570312 6.7714844 C 5.7868112 6.7340544 5.6674144 6.7633975 5.5527344 6.8671875 C 5.4629244 6.9481875 5.3632312 6.9882314 5.3320312 6.9570312 C 5.3008313 6.9258212 5.2589812 6.5779238 5.2382812 6.1835938 C 5.2045813 5.5414836 5.1774312 5.4495713 4.9882812 5.3007812 C 4.8721212 5.2094512 4.7131656 5.1347656 4.6347656 5.1347656 C 4.2580556 5.1347656 3.4121925 5.9341294 2.8515625 6.8183594 L 2.71875 7.0273438 L 1.359375 7 C 0.611915 6.9849 0 6.9885656 0 7.0097656 C 0 7.0309656 0.23592062 7.1336681 0.52539062 7.2363281 C 1.8020906 7.6890981 2.6113281 8.02035 2.6113281 8.09375 C 2.6113281 8.13738 2.7076219 8.2701119 2.8261719 8.3886719 C 3.0232419 8.5857519 3.0302462 8.61731 2.9101562 8.75 C 2.7263165 8.95314 2.7391969 9.0075385 3.0917969 9.5429688 C 3.4176869 10.037819 3.5070394 10.079834 3.9433594 9.9277344 C 4.0882294 9.8772344 4.2441625 9.8474813 4.2890625 9.8632812 C 4.3339325 9.879042 4.0871275 10.340349 3.7421875 10.886719 C 3.3977345 11.432333 3.1160134 11.893821 3.1152344 11.916016 C 3.1152344 11.983216 3.173025 11.964396 4.609375 11.398438 C 7.086185 10.422496 7.9295431 10.101569 8.0273438 10.101562 C 8.0797931 10.101562 8.5027669 10.25347 8.9667969 10.4375 C 11.320157 11.37078 12.834384 11.955078 12.896484 11.955078 C 12.934554 11.955078 12.795381 11.691834 12.587891 11.371094 C 12.380411 11.050354 12.210938 10.769094 12.210938 10.746094 C 12.210938 10.723054 12.34095 10.661875 12.5 10.609375 C 12.65905 10.556885 12.920251 10.36657 13.082031 10.1875 C 13.442681 9.78832 13.537961 9.3032485 13.394531 8.5742188 C 13.339431 8.2940286 13.305512 8.056875 13.320312 8.046875 C 13.335102 8.036925 13.944348 7.8064464 14.673828 7.5351562 C 15.403298 7.2638663 16 7.0242531 16 7.0019531 C 16 6.9797531 15.342914 6.9852719 14.539062 7.0136719 L 13.076172 7.0644531 L 12.982422 6.8574219 C 12.908922 6.6961019 12.824053 6.6503906 12.601562 6.6503906 C 12.444142 6.6503906 12.267131 6.70885 12.207031 6.78125 C 12.107921 6.90063 12.090238 6.90063 12.023438 6.78125 C 11.938636 6.62975 11.614006 6.6066975 11.478516 6.7421875 C 11.413226 6.8075875 11.338903 6.8074406 11.220703 6.7441406 C 11.012723 6.6332906 10.268753 6.6395463 10.126953 6.7539062 C 9.9237638 6.9177662 9.5177619 6.4514 8.7636719 5.1875 C 8.2159019 4.2694025 8.0674433 4.0286673 7.9765625 4.046875 z M 4.703125 5.4902344 C 4.8586525 5.5204153 4.9096844 5.6917181 4.8964844 6.0644531 C 4.8629944 7.0108131 4.1970831 7.8400394 3.6894531 7.5683594 C 3.5446331 7.4908394 3.5242935 7.4173113 3.5585938 7.1132812 C 3.5973635 6.7693812 3.8889294 6.2285156 4.0371094 6.2285156 C 4.1648094 6.2285156 4.1889219 6.5387175 4.0761719 6.7421875 C 3.9435719 6.9814475 3.9248825 7.2926813 4.0390625 7.3632812 C 4.2725725 7.5075912 4.7148438 6.5628119 4.7148438 5.9199219 C 4.7148438 5.5076719 4.4527163 5.552685 3.9726562 6.046875 C 3.3171869 6.721585 3.061135 7.4075987 3.296875 7.8554688 C 3.428235 8.1050388 3.5315894 8.1620625 3.8496094 8.1640625 C 4.2157994 8.1658025 4.651955 7.7266044 4.796875 7.2089844 C 4.906465 6.8175944 5.0527344 6.6838994 5.0527344 6.9746094 C 5.0527344 7.0599894 5.1293563 7.3517869 5.2226562 7.6230469 C 5.6247763 8.7918369 5.4078256 9.1969519 4.1972656 9.5449219 C 3.9354056 9.6201819 3.6870313 9.6816406 3.6445312 9.6816406 C 3.5695113 9.6816406 3.0873656 9.0054969 3.1347656 8.9667969 C 3.1477556 8.9561869 3.3663538 8.878875 3.6210938 8.796875 C 4.6443638 8.467515 4.96917 8.2059744 4.96875 7.7089844 L 4.96875 7.3652344 L 4.8105469 7.6191406 C 4.4372169 8.2202406 3.9101744 8.4807244 3.3652344 8.3339844 C 3.0447144 8.2476844 2.8632812 7.9933694 2.8632812 7.6308594 C 2.8632812 7.1674094 4.0656688 5.6158564 4.5117188 5.5039062 C 4.5883388 5.4846762 4.6512825 5.4801741 4.703125 5.4902344 z M 9.4023438 6.90625 C 9.5647847 6.9197062 9.7297514 6.9826169 9.8320312 7.0917969 C 10.228101 7.5146469 10.261539 8.1019319 9.9121094 8.4824219 C 9.5508776 8.8737963 8.8426761 8.6635173 8.7070312 8.1230469 C 8.6433612 7.8693869 8.8166415 7.1931344 8.9882812 7.0214844 C 9.0812865 6.9284794 9.2399023 6.8927938 9.4023438 6.90625 z M 8.0078125 6.9160156 C 8.2189914 6.9301531 8.3755225 7.0589663 8.4765625 7.3007812 C 8.6489225 7.7133012 8.5547518 8.1874366 8.2382812 8.5039062 C 7.7642518 8.9779367 7.1562031 8.7660831 7.1582031 8.1269531 C 7.1595231 7.7168631 7.5323437 7.0009531 7.7773438 6.9394531 C 7.8597712 6.9187631 7.9374195 6.9113031 8.0078125 6.9160156 z M 12.554688 6.9179688 C 12.681567 6.9592088 12.789686 7.2683744 13.003906 8.2089844 C 13.260236 9.3344844 13.124812 9.9358087 12.544922 10.261719 C 12.215952 10.446639 11.664269 10.534797 11.261719 10.466797 L 11.029297 10.427734 L 11.199219 10.212891 C 11.292739 10.094021 11.369141 9.9015994 11.369141 9.7871094 C 11.369141 9.6312194 11.402053 9.5925594 11.501953 9.6308594 C 12.125993 9.8703294 12.664333 9.7407206 12.845703 9.3066406 C 13.020333 8.8886006 12.999943 8.6482525 12.820312 9.0078125 C 12.638643 9.3714925 12.358091 9.4383462 12.181641 9.1601562 C 12.113741 9.0531062 12.01865 8.6521512 11.96875 8.2695312 C 11.91885 7.8869012 11.815987 7.4571931 11.742188 7.3144531 C 11.668387 7.1717231 11.628844 7.0371719 11.652344 7.0136719 C 11.750444 6.9155619 11.879476 7.1071662 12.003906 7.5351562 C 12.164576 8.0878763 12.36991 8.3649156 12.5625 8.2910156 C 12.84282 8.1834356 12.824786 7.8014025 12.503906 7.0390625 C 12.454436 6.9217725 12.466887 6.8894687 12.554688 6.9179688 z M 9.4394531 6.9863281 C 9.2973931 6.9863281 9.3294206 7.1667288 9.4941406 7.2929688 C 9.6176406 7.3876388 9.6229375 7.4170219 9.5234375 7.4824219 C 9.3630575 7.5878619 9.18095 7.5067656 9.09375 7.2910156 C 9.03435 7.1441656 9.019625 7.1669081 9.015625 7.4238281 C 9.011685 7.6535881 9.0590056 7.7702875 9.1972656 7.8671875 C 9.3001956 7.9392775 9.443625 7.9980469 9.515625 7.9980469 C 9.698385 7.9980469 10.021484 7.7586169 10.021484 7.6230469 C 10.021484 7.4841369 9.5664431 6.9863281 9.4394531 6.9863281 z M 10.369141 6.9863281 C 10.406451 6.9863281 10.499772 7.2043831 10.576172 7.4707031 C 10.743752 8.0551731 10.822978 8.1660156 11.080078 8.1660156 C 11.455648 8.1660156 11.53645 7.6645344 11.21875 7.3027344 C 11.04945 7.1098544 10.951806 7.1153131 11.003906 7.3144531 C 11.069286 7.5644531 10.884132 7.6045969 10.732422 7.3730469 C 10.447032 6.9374869 10.935358 6.8321506 11.330078 7.2441406 C 11.548568 7.4721606 11.579122 7.5717425 11.607422 8.1328125 C 11.633472 8.6486525 11.611744 8.7934644 11.490234 8.9277344 C 11.128604 9.3273244 10.777321 8.9888469 10.525391 7.9980469 C 10.425281 7.6043569 10.309578 7.2400531 10.267578 7.1894531 C 10.190298 7.0963331 10.244881 6.9863281 10.369141 6.9863281 z M 6.8203125 7.0722656 C 6.9768125 7.0722656 6.9069962 7.331285 6.6914062 7.546875 C 6.5735563 7.664745 6.4308 7.74165 6.375 7.71875 C 5.92964 7.53627 5.9485656 7.5301575 6.0097656 7.8359375 C 6.0903856 8.2389975 6.3276781 8.4640631 6.5488281 8.3457031 C 6.7027681 8.2633431 6.7233125 8.2836394 6.7578125 8.5683594 C 6.7792125 8.7448594 6.755025 8.9085594 6.703125 8.9433594 C 6.436085 9.1225194 5.9785156 8.86291 5.9785156 8.53125 C 5.9785156 8.26453 5.7843206 7.5616644 5.6816406 7.4589844 C 5.5848306 7.3620444 5.5856 7.3206 5.6875 7.1875 C 5.80379 7.03553 5.8099281 7.03613 5.8613281 7.21875 C 5.8906481 7.32292 5.9509938 7.4082031 5.9960938 7.4082031 C 6.0411637 7.4082031 6.1527406 7.32296 6.2441406 7.21875 C 6.3593306 7.08745 6.4247781 7.0618656 6.4550781 7.1347656 C 6.5069881 7.2598256 6.7363281 7.27739 6.7363281 7.15625 C 6.7363281 7.10995 6.7740125 7.0722656 6.8203125 7.0722656 z M 8.0371094 7.0722656 C 7.8929494 7.0722656 7.8773656 7.2523656 8.0097656 7.3847656 C 8.0612656 7.4363156 8.077975 7.5179594 8.046875 7.5683594 C 7.961295 7.7068494 7.7370381 7.6792719 7.6113281 7.5136719 C 7.5096781 7.3796919 7.5000469 7.3871263 7.4980469 7.5976562 C 7.4965769 7.7250162 7.5714625 7.9054469 7.6640625 7.9980469 C 7.7567025 8.0906669 7.8641969 8.1660156 7.9042969 8.1660156 C 8.0706069 8.1660156 8.421875 7.8030094 8.421875 7.6308594 C 8.421875 7.3969594 8.1973894 7.0722656 8.0371094 7.0722656 z "
       transform="translate(35.396599,318.1568)"
       id="path4162" />
  </g>
</svg>

<svg xmlns="http://www.w3.org/2000/svg" viewBox="0 0 16 16">
 <path d="m7.9766 4.0469c-0.0303 0.006-0.0536 0.0392-0.084 0.0879-0.0684 0.1093-0.262 0.4183-0.4297 0.6855s-0.3047 0.5019-0.3047 0.5215c0 0.0576-0.6936 1.1677-0.832 1.332-0.0923 0.1095-0.1928 0.1364-0.3692 0.0977-0.1702-0.0374-0.2896-0.0081-0.4043 0.0957-0.0898 0.081-0.1895 0.121-0.2207 0.0898s-0.073-0.3791-0.0937-0.7734c-0.0337-0.6421-0.0609-0.734-0.25-0.8828-0.1162-0.0913-0.2751-0.166-0.3535-0.166-0.3767 0-1.2226 0.7993-1.7832 1.6836l-0.1328 0.2089-1.3594-0.0273c-0.74748-0.0151-1.3594-0.0114-1.3594 0.0098s0.23592 0.1239 0.52539 0.2265c1.2767 0.4528 2.0859 0.7841 2.0859 0.8575 0 0.0436 0.0963 0.1763 0.2149 0.2949 0.197 0.1971 0.204 0.2286 0.084 0.3613-0.1839 0.2031-0.171 0.2575 0.1816 0.793 0.3259 0.495 0.4152 0.537 0.8516 0.3847 0.1448-0.0505 0.3008-0.0802 0.3457-0.0644 0.0448 0.0157-0.202 0.4767-0.5469 1.0237-0.3445 0.545-0.6262 1.007-0.627 1.029 0 0.067 0.0578 0.048 1.4942-0.518 2.4768-0.976 3.3201-1.296 3.4179-1.296 0.0525 0 0.4755 0.151 0.9395 0.336 2.3532 0.933 3.8672 1.517 3.9292 1.517 0.039 0-0.101-0.263-0.308-0.584-0.208-0.321-0.377-0.602-0.377-0.625s0.13-0.084 0.289-0.137c0.159-0.052 0.42-0.242 0.582-0.421 0.361-0.3997 0.456-0.8848 0.313-1.6138-0.056-0.2802-0.089-0.5173-0.075-0.5273 0.015-0.01 0.624-0.2405 1.354-0.5117 0.729-0.2713 1.326-0.5109 1.326-0.5332 0-0.0222-0.657-0.0167-1.461 0.0117l-1.463 0.0508-0.094-0.2071c-0.073-0.1613-0.158-0.207-0.38-0.207-0.158 0-0.335 0.0584-0.395 0.1308-0.099 0.1194-0.117 0.1194-0.184 0-0.084-0.1514-0.409-0.1745-0.544-0.039-0.066 0.0654-0.14 0.0652-0.258 0.0019-0.208-0.1108-0.952-0.1046-1.094 0.0098-0.2032 0.1639-0.6092-0.3025-1.3633-1.5664-0.5478-0.9181-0.6963-1.1588-0.7871-1.1406zm-3.2735 1.4433c0.1556 0.0302 0.2066 0.2015 0.1934 0.5743-0.0335 0.9463-0.6994 1.7755-1.207 1.5039-0.1449-0.0776-0.1652-0.1511-0.1309-0.4551 0.0388-0.3439 0.3303-0.8848 0.4785-0.8848 0.1277 0 0.1518 0.3102 0.0391 0.5137-0.1326 0.2392-0.1513 0.5505-0.0371 0.6211 0.2335 0.1443 0.6757-0.8005 0.6757-1.4434 0-0.4122-0.2621-0.3672-0.7421 0.127-0.6555 0.6747-0.9116 1.3607-0.6758 1.8086 0.1313 0.2495 0.2347 0.3066 0.5527 0.3086 0.3662 0.0017 0.8024-0.4375 0.9473-0.9551 0.1096-0.3914 0.2558-0.5251 0.2558-0.2344 0 0.0854 0.0767 0.3772 0.17 0.6484 0.4021 1.1688 0.1851 1.574-1.0254 1.9219-0.2619 0.0753-0.5103 0.1367-0.5528 0.1367-0.075 0-0.5571-0.6761-0.5097-0.7148 0.013-0.0106 0.2316-0.0879 0.4863-0.1699 1.0233-0.3294 1.3481-0.5909 1.3477-1.0879v-0.3438l-0.1583 0.2539c-0.3733 0.6011-0.9003 0.8616-1.4453 0.7149-0.3205-0.0863-0.5019-0.3406-0.5019-0.7031 0-0.4635 1.2024-2.015 1.6484-2.127 0.0766-0.0192 0.1396-0.0237 0.1914-0.0137zm4.6992 1.416c0.1625 0.0135 0.3275 0.0764 0.4297 0.1856 0.396 0.4228 0.43 1.0101 0.0801 1.3906-0.3612 0.3914-1.0694 0.1811-1.2051-0.3594-0.0636-0.2536 0.1096-0.9299 0.2813-1.1015 0.093-0.093 0.2516-0.1287 0.414-0.1153zm-1.3945 0.0098c0.2112 0.0142 0.3677 0.143 0.4688 0.3848 0.1723 0.4125 0.0782 0.8866-0.2383 1.2031-0.474 0.474-1.0821 0.2622-1.0801-0.3769 0.0013-0.4101 0.3741-1.126 0.6191-1.1875 0.0825-0.0207 0.1601-0.0282 0.2305-0.0235zm4.5472 0.002c0.127 0.0412 0.235 0.3504 0.449 1.291 0.256 1.1255 0.121 1.7268-0.459 2.053-0.329 0.185-0.881 0.273-1.283 0.205l-0.233-0.039 0.17-0.215c0.094-0.119 0.17-0.3114 0.17-0.4259 0-0.1559 0.033-0.1945 0.133-0.1562 0.624 0.2394 1.162 0.1098 1.344-0.3243 0.174-0.418 0.154-0.6583-0.026-0.2988-0.181 0.3637-0.462 0.4305-0.638 0.1524-0.068-0.1071-0.163-0.508-0.213-0.8907-0.05-0.3826-0.153-0.8123-0.227-0.955-0.074-0.1428-0.113-0.2773-0.09-0.3008 0.098-0.0981 0.227 0.0935 0.352 0.5215 0.161 0.5527 0.366 0.8297 0.558 0.7558 0.281-0.1076 0.263-0.4896-0.058-1.2519-0.05-0.1173-0.037-0.1496 0.051-0.1211zm-3.1155 0.0683c-0.1421 0-0.1101 0.1804 0.0546 0.3067 0.1235 0.0946 0.1288 0.124 0.0293 0.1894-0.1603 0.1055-0.3424 0.0244-0.4296-0.1914-0.0594-0.1468-0.0742-0.1241-0.0782 0.1328-0.0039 0.2298 0.0434 0.3465 0.1817 0.4434 0.1029 0.0721 0.2463 0.1308 0.3183 0.1308 0.1828 0 0.5054-0.2394 0.5054-0.375 0-0.1389-0.4546-0.6367-0.5815-0.6367zm0.9295 0c0.037 0 0.131 0.2181 0.207 0.4844 0.168 0.5845 0.247 0.6953 0.504 0.6953 0.376 0 0.456-0.5015 0.139-0.8633-0.17-0.1928-0.267-0.1874-0.215 0.0118 0.065 0.25-0.12 0.2901-0.272 0.0585-0.285-0.4355 0.203-0.5408 0.598-0.1289 0.219 0.2281 0.249 0.3276 0.277 0.8887 0.026 0.5159 0.005 0.6607-0.117 0.7949-0.361 0.3996-0.713 0.0611-0.965-0.9297-0.1-0.3936-0.215-0.7579-0.257-0.8085-0.078-0.0932-0.023-0.2032 0.101-0.2032zm-3.5487 0.086c0.1565 0 0.0867 0.259-0.1289 0.4746-0.1178 0.1178-0.2606 0.1947-0.3164 0.1719-0.4454-0.1825-0.4264-0.1886-0.3652 0.1171 0.0806 0.4031 0.3179 0.6282 0.539 0.5098 0.154-0.0824 0.1745-0.0621 0.209 0.2227 0.0214 0.1765-0.0028 0.3402-0.0547 0.375-0.267 0.1791-0.7246-0.0805-0.7246-0.4122 0-0.2667-0.1942-0.9695-0.2969-1.0722-0.0968-0.097-0.096-0.1384 0.0059-0.2715 0.1163-0.152 0.1224-0.1514 0.1738 0.0313 0.0293 0.1041 0.0897 0.1894 0.1348 0.1894s0.1566-0.0852 0.248-0.1894c0.1152-0.1314 0.1807-0.1569 0.211-0.084 0.0519 0.125 0.2812 0.1426 0.2812 0.0214 0-0.0462 0.0377-0.0839 0.084-0.0839zm1.2168 0c-0.1442 0-0.1597 0.1801-0.0273 0.3125 0.0515 0.0515 0.0682 0.1332 0.0371 0.1836-0.0856 0.1384-0.3099 0.1109-0.4356-0.0547-0.1016-0.134-0.1113-0.1266-0.1133 0.084-0.0014 0.1273 0.0735 0.3077 0.1661 0.4003 0.0926 0.0927 0.2001 0.168 0.2402 0.168 0.1663 0 0.5176-0.363 0.5176-0.5351 0-0.2339-0.2245-0.5586-0.3848-0.5586z"/>
</svg>
